X:2155 
T:Yn unnysup 
C:Tom Kermode 
C:Traditional
O:Isle of Man
Z:Clague collection, 14 January 1896
B:Kiaull Vannin #155
N:See also KV156
L:1/8
M:6/8 
K:G 
G2A Bcd|G2A Bcd|e2e d2B|A3 A3|GGA Bcd|GGA B/B/c/c/d|e2e dcB|A3 G3|| 

